icons/CirclePlus.svg

<svg width="24" height="24" viewBox="0 0 24 24" fill="none" xmlns="http://www.w3.org/2000/svg">
<path fill-rule="evenodd" clip-rule="evenodd" d="M12,20.25c4.5563,0 8.25,-3.6937 8.25,-8.25c0,-4.55635 -3.6937,-8.25 -8.25,-8.25c-4.55635,0 -8.25,3.69365 -8.25,8.25c0,4.5563 3.69365,8.25 8.25,8.25zM21.75,12c0,5.3848 -4.3652,9.75 -9.75,9.75c-5.38478,0 -9.75,-4.3652 -9.75,-9.75c0,-5.38478 4.36522,-9.75 9.75,-9.75c5.3848,0 9.75,4.36522 9.75,9.75zM12,8.25c0.4142,0 0.75,0.33578 0.75,0.75v2.25h2.25c0.4142,0 0.75,0.3358 0.75,0.75c0,0.4142 -0.3358,0.75 -0.75,0.75h-2.25v2.25c0,0.4142 -0.3358,0.75 -0.75,0.75c-0.4142,0 -0.75,-0.3358 -0.75,-0.75v-2.25l-2.24999,0.0001c-0.41421,0 -0.75,-0.3358 -0.75,-0.75c0,-0.4143 0.33578,-0.75 0.74999,-0.75l2.25,-0.0001v-2.25c0,-0.41422 0.3358,-0.75 0.75,-0.75z" fill="#002B51"/>
</svg>

<svg width="24" height="24" viewBox="0 0 24 24" fill="none" xmlns="http://www.w3.org/2000/svg">
<path fill-rule="evenodd" clip-rule="evenodd" d="M3.75 12C3.75 7.44365 7.44365 3.75 12 3.75C16.5563 3.75 20.25 7.44365 20.25 12C20.25 16.5563 16.5563 20.25 12 20.25C7.44365 20.25 3.75 16.5563 3.75 12ZM12 2.25C6.61522 2.25 2.25 6.61522 2.25 12C2.25 17.3848 6.61522 21.75 12 21.75C17.3848 21.75 21.75 17.3848 21.75 12C21.75 6.61522 17.3848 2.25 12 2.25ZM12 8.25C12.4142 8.25 12.75 8.58578 12.75 9V11.25L15 11.25C15.4142 11.25 15.75 11.5858 15.75 12C15.75 12.4142 15.4142 12.75 15 12.75L12.75 12.75V15C12.75 15.4142 12.4142 15.75 12 15.75C11.5858 15.75 11.25 15.4142 11.25 15V12.75L9.00001 12.7501C8.5858 12.7501 8.25001 12.4143 8.25001 12.0001C8.25001 11.5858 8.58579 11.2501 9 11.2501L11.25 11.25V9C11.25 8.58578 11.5858 8.25 12 8.25Z" fill="#002B51"/>
</svg>
